X:313
T:Get Up, Old Woman, and Shake Yourself
R:jig
H:See also #314. Also played as a slide.
D:Marcas \'O Murch\'u: \'O Bh\'eal go B\'eal
Z:id:hn-jig-313
M:6/8
K:Edor
G2B BAB|G2E E2D|F2A A2G|FAF DEF|
G2B BAB|GBd geg|d2B BAB|1 G2E E2D:|2 G2E E2g||
d2B BAB|d2B BAB|d2B BAB|G2E Eeg|
d2B BAB|~d3 B2d|efg fed|~e3 e2f|
gfe fed|e2d Bcd|efg fed|~e3 e2f|
gfe fed|e2d Bcd|e2g fed|~e3 g3||

